X:294
T:Lift High The Cross
%%stretchlast false
M:4/4
L:1/4
K:Bb clef=C1
"^I"[B,DBf] "^ii"[B,Ecf] "^I"[B,Fdb] "^I¹"[D,FBb]/ [D,FBf]/ | "^ii7"[C,GBe] "^V7"[F,FAe] "^IV¹"[G,EBe] "^V¹"[A,Ccf] | "^I"[B,FBd] "^vi7"[G,FBd]/ "^IV¹"[G,EBe]/ "^I²"[F,DBf] "^II7¹"[=E,CBg] | "^i"[F,FBc] "^V"[F,FAc] "^v"[G,FGc] "^V7¹"[A,EFc] | "^I"[B,DFd] "^V7²"[CEAf] "^I¹"[DFBb] "^ii7¹"[EGcb] | "^Imaj7²"[FAdb] "^IV¹"[GBeg] "^V¹"[Acf] "^IV¹"[GBef] | "^iii¹"[FAdf] "^ii¹"[EGcg]/ "^vi²"[DGBg]/ "^ii7"[CGBe]/ "^I"[CFBd]/ "^V7"[F,EAc]/ "^ii"[F,EGc]/ | "^iv"[B,EFB] [B,CFB] "^I"[B,DFB]2 | "^iii"[DAdf] "^iii7"[DAcf] "^♭v°¹"[G,GB=e]3/2 "^vi"[G,GBd]/ | "^II"[CGc=e] "^II7³"[B,Gc=e] "^V¹"[A,Fc] "^vii"[A,=Ec] | "^I"[B,DFd]3/2 "^V/iii"[A,_DA=e]/ "^iii"[DAf] "^vi¹"[B,Ddg] | "^V/iii"[A,=E_da]2 "^iii"[DFdf] [DFcf] | "^vi"[G,GBb] "^vi7"[G,Fdb] "^vii¹"[C=Eca] "^II7³"[B,=Ecg] | "^V¹"[A,Fcc'] [A,Gcc'] [A,Fc] "^vii"[A,=Ec] | "^I"[B,DBd]3/2 [B,Bdf]/ "^v"[CGcf] "^V/V"[CGc=e] | "^V"[F,Acf]4 | e4 | c4 | d4 |]
